dist/svgs/core-ui-icons/brand/cib-haxe.svg

<svg xmlns="http://www.w3.org/2000/svg" width="32" height="32" viewBox="0 0 32 32">
  <path d="M31.713 0c-0.020 0-0.041 0-0.057 0.005h-7.807c-0.047 0-0.089 0.011-0.131 0.031l-7.719 3.855-7.719-3.855c-0.041-0.020-0.088-0.031-0.131-0.031h-7.833c-0.011 0-0.025 0-0.036 0-0.177 0.005-0.308 0.167-0.276 0.339v7.807c0 0.047 0.011 0.089 0.031 0.131l3.86 7.713-3.86 7.724c-0.020 0.041-0.031 0.088-0.031 0.136v7.785c-0.011 0.032-0.005 0.068 0 0.105 0.021 0.161 0.172 0.276 0.339 0.249h7.807c0.043 0 0.089-0.011 0.131-0.031l7.719-3.865 7.719 3.865c0.041 0.020 0.088 0.031 0.131 0.031h7.839c0.187 0.016 0.339-0.156 0.307-0.344v-7.796c0-0.048-0.011-0.095-0.031-0.136l-3.86-7.724 3.86-7.713c0.020-0.041 0.031-0.084 0.031-0.131v-7.796c0.011-0.043 0.005-0.089-0.005-0.131-0.031-0.131-0.145-0.219-0.276-0.224zM2.697 0.593h5.381l5.385 2.688zM23.921 0.593h5.381l-10.767 2.688zM0.703 0.703l14.719 3.683-11.041 11.031-0.312-1.271zM31.292 0.713l-3.677 14.708-11.036-11.041zM31.407 2.697v5.381l-2.693 5.38zM0.593 2.697l2.459 9.833 0.235 0.933-2.693-5.385zM16 4.64l11.36 11.36-11.355 11.355-11.365-11.355zM27.615 16.579l0.12 0.463 3.563 14.256-14.719-3.683zM4.385 16.579l11.031 11.031-14.708 3.672 0.355-1.421zM28.713 18.531l2.693 5.391v5.371zM3.287 18.531l-2.693 10.772v-5.381zM13.453 28.713l-5.375 2.693h-5.385zM18.547 28.713l10.76 2.693h-5.385z"/>
</svg>

<svg xmlns="http://www.w3.org/2000/svg" viewBox="0 0 32 32"><path d="M31.713 0c-.02 0-.041 0-.057.005h-7.807a.297.297 0 00-.131.031l-7.719 3.855L8.28.036a.307.307 0 00-.131-.031H.28a.288.288 0 00-.276.339v7.807c0 .047.011.089.031.131l3.86 7.713-3.86 7.724a.312.312 0 00-.031.136v7.785c-.011.032-.005.068 0 .105a.292.292 0 00.339.249H8.15a.31.31 0 00.131-.031L16 28.098l7.719 3.865c.041.02.088.031.131.031h7.839a.293.293 0 00.307-.344v-7.796a.312.312 0 00-.031-.136l-3.86-7.724 3.86-7.713a.294.294 0 00.031-.131V.354a.276.276 0 00-.005-.131.292.292 0 00-.276-.224zM2.697.593h5.381l5.385 2.688zm21.224 0h5.381L18.535 3.281zM.703.703l14.719 3.683L4.381 15.417l-.312-1.271zm30.589.01l-3.677 14.708L16.579 4.38zm.115 1.984v5.381l-2.693 5.38zm-30.814 0l2.459 9.833.235.933L.594 8.078zM16 4.64L27.36 16 16.005 27.355 4.64 16zm11.615 11.939l.12.463 3.563 14.256-14.719-3.683zm-23.23 0L15.416 27.61.708 31.282l.355-1.421zm24.328 1.952l2.693 5.391v5.371zm-25.426 0L.594 29.303v-5.381zm10.166 10.182l-5.375 2.693H2.693zm5.094 0l10.76 2.693h-5.385z"/></svg>
